src/data/articles/compile-time-data-contracts-scala-3/images/04-typerepr-applied.svg

<svg xmlns="http://www.w3.org/2000/svg" id="my-svg" width="100%" aria-roledescription="flowchart-v2" class="flowchart" style="font-family:arial,helvetica,sans-serif;font-size:16px;fill:#000;max-width:367.422px;background-color:#fff" viewBox="0 0 367.422 278"><style>@keyframes edge-animation-frame{0%{stroke-dashoffset:0}}@keyframes dash{to{stroke-dashoffset:0}}#my-svg .edge-thickness-normal{stroke-width:1px}#my-svg .edge-pattern-solid{stroke-dasharray:0}#my-svg .marker{fill:#06c;stroke:#06c}#my-svg .marker.cross{stroke:#06c}#my-svg .label,#my-svg svg{font-family:arial,helvetica,sans-serif}#my-svg svg{font-size:16px}#my-svg p{margin:0}#my-svg .label{color:#000}#my-svg span{fill:#000;color:#000}#my-svg .node circle,#my-svg .node path,#my-svg .node rect{fill:#fff;stroke:#06c;stroke-width:1px}#my-svg .flowchart-link{stroke:#06c;fill:none}#my-svg .edgeLabel,#my-svg .node .label{text-align:center}#my-svg .edgeLabel,#my-svg .edgeLabel p{background-color:#fff}#my-svg .edgeLabel rect{opacity:.5;background-color:#fff;fill:#fff}#my-svg .labelBkg{background-color:rgba(255,255,255,.5)}#my-svg :root{--mermaid-font-family:&quot;trebuchet ms&quot;,verdana,arial,sans-serif}</style><marker id="my-svg_flowchart-v2-pointEnd" class="marker flowchart-v2" markerHeight="8" markerUnits="userSpaceOnUse" markerWidth="8" orient="auto" refX="5" refY="5" viewBox="0 0 10 10"><path d="m0 0 10 5-10 5z" class="arrowMarkerPath" style="stroke-width:1;stroke-dasharray:1,0"/></marker><marker id="my-svg_flowchart-v2-pointStart" class="marker flowchart-v2" markerHeight="8" markerUnits="userSpaceOnUse" markerWidth="8" orient="auto" refX="4.5" refY="5" viewBox="0 0 10 10"><path d="m0 5 10 5V0z" class="arrowMarkerPath" style="stroke-width:1;stroke-dasharray:1,0"/></marker><marker id="my-svg_flowchart-v2-circleEnd" class="marker flowchart-v2" markerHeight="11" markerUnits="userSpaceOnUse" markerWidth="11" orient="auto" refX="11" refY="5" viewBox="0 0 10 10"><circle cx="5" cy="5" r="5" class="arrowMarkerPath" style="stroke-width:1;stroke-dasharray:1,0"/></marker><marker id="my-svg_flowchart-v2-circleStart" class="marker flowchart-v2" markerHeight="11" markerUnits="userSpaceOnUse" markerWidth="11" orient="auto" refX="-1" refY="5" viewBox="0 0 10 10"><circle cx="5" cy="5" r="5" class="arrowMarkerPath" style="stroke-width:1;stroke-dasharray:1,0"/></marker><marker id="my-svg_flowchart-v2-crossEnd" class="marker cross flowchart-v2" markerHeight="11" markerUnits="userSpaceOnUse" markerWidth="11" orient="auto" refX="12" refY="5.2" viewBox="0 0 11 11"><path d="m1 1 9 9m0-9-9 9" class="arrowMarkerPath" style="stroke-width:2;stroke-dasharray:1,0"/></marker><marker id="my-svg_flowchart-v2-crossStart" class="marker cross flowchart-v2" markerHeight="11" markerUnits="userSpaceOnUse" markerWidth="11" orient="auto" refX="-1" refY="5.2" viewBox="0 0 11 11"><path d="m1 1 9 9m0-9-9 9" class="arrowMarkerPath" style="stroke-width:2;stroke-dasharray:1,0"/></marker><g class="root"><g class="edgePaths"><path id="L_A_B_0" marker-end="url(#my-svg_flowchart-v2-pointEnd)" d="M179.043 62v46" class="edge-thickness-normal edge-pattern-solid edge-thickness-normal edge-pattern-solid flowchart-link" data-edge="true" data-et="edge" data-id="L_A_B_0" data-points="W3sieCI6MTc5LjA0Mjk2ODc1LCJ5Ijo2Mn0seyJ4IjoxNzkuMDQyOTY4NzUsInkiOjg3fSx7IngiOjE3OS4wNDI5Njg3NSwieSI6MTEyfV0="/><path id="L_B_C_0" marker-end="url(#my-svg_flowchart-v2-pointEnd)" d="m126.935 166-8.041 4.167c-8.041 4.166-24.124 12.5-32.165 20.166S78.688 205 78.688 208.5v3.5" class="edge-thickness-normal edge-pattern-solid edge-thickness-normal edge-pattern-solid flowchart-link" data-edge="true" data-et="edge" data-id="L_B_C_0" data-points="W3sieCI6MTI2LjkzNTMyMTUxNDQyMzA4LCJ5IjoxNjZ9LHsieCI6NzguNjg3NSwieSI6MTkxfSx7IngiOjc4LjY4NzUsInkiOjIxNn1d"/><path id="L_B_D_0" marker-end="url(#my-svg_flowchart-v2-pointEnd)" d="m231.151 166 8.041 4.167c8.041 4.166 24.124 12.5 32.165 20.166s8.041 14.667 8.041 18.167v3.5" class="edge-thickness-normal edge-pattern-solid edge-thickness-normal edge-pattern-solid flowchart-link" data-edge="true" data-et="edge" data-id="L_B_D_0" data-points="W3sieCI6MjMxLjE1MDYxNTk4NTU3NjksInkiOjE2Nn0seyJ4IjoyNzkuMzk4NDM3NSwieSI6MTkxfSx7IngiOjI3OS4zOTg0Mzc1LCJ5IjoyMTZ9XQ=="/></g><g class="edgeLabels"><g class="edgeLabel"><foreignObject width="0" height="0" class="label" data-id="L_A_B_0"><div xmlns="http://www.w3.org/1999/xhtml" class="labelBkg" style="display:table-cell;white-space:nowrap;line-height:1.5;max-width:200px;text-align:center"><span class="edgeLabel"/></div></foreignObject></g><g class="edgeLabel"><foreignObject width="0" height="0" class="label" data-id="L_B_C_0"><div xmlns="http://www.w3.org/1999/xhtml" class="labelBkg" style="display:table-cell;white-space:nowrap;line-height:1.5;max-width:200px;text-align:center"><span class="edgeLabel"/></div></foreignObject></g><g class="edgeLabel"><foreignObject width="0" height="0" class="label" data-id="L_B_D_0"><div xmlns="http://www.w3.org/1999/xhtml" class="labelBkg" style="display:table-cell;white-space:nowrap;line-height:1.5;max-width:200px;text-align:center"><span class="edgeLabel"/></div></foreignObject></g></g><g class="nodes"><g id="flowchart-A-0" class="node default"><path d="M111.246 8H246.84v54H111.246z" class="basic label-container"/><g class="label" transform="translate(141.246 23)"><rect/><foreignObject width="75.594" height="24"><div xmlns="http://www.w3.org/1999/xhtml" style="display:table-cell;white-space:nowrap;line-height:1.5;max-width:200px;text-align:center"><span class="nodeLabel"><p>List[String]</p></span></div></foreignObject></g></g><g id="flowchart-B-1" class="node default"><path d="M59.668 112h238.75v54H59.668z" class="basic label-container"/><g class="label" transform="translate(89.668 127)"><rect/><foreignObject width="178.75" height="24"><div xmlns="http://www.w3.org/1999/xhtml" style="display:table-cell;white-space:nowrap;line-height:1.5;max-width:200px;text-align:center"><span class="nodeLabel"><p>AppliedType(List,[String])</p></span></div></foreignObject></g></g><g id="flowchart-C-3" class="node default"><path d="M8 216h141.375v54H8z" class="basic label-container"/><g class="label" transform="translate(38 231)"><rect/><foreignObject width="81.375" height="24"><div xmlns="http://www.w3.org/1999/xhtml" style="display:table-cell;white-space:nowrap;line-height:1.5;max-width:200px;text-align:center"><span class="nodeLabel"><p>tycon = List</p></span></div></foreignObject></g></g><g id="flowchart-D-5" class="node default"><path d="M199.375 216h160.047v54H199.375z" class="basic label-container"/><g class="label" transform="translate(229.375 231)"><rect/><foreignObject width="100.047" height="24"><div xmlns="http://www.w3.org/1999/xhtml" style="display:table-cell;white-space:nowrap;line-height:1.5;max-width:200px;text-align:center"><span class="nodeLabel"><p>args = [String]</p></span></div></foreignObject></g></g></g></g></svg>

<svg id="my-svg" width="100%" xmlns="http://www.w3.org/2000/svg" xmlns:xlink="http://www.w3.org/1999/xlink" class="flowchart" style="max-width: 367.422px; background-color: white;" viewBox="0 0 367.421875 278" role="graphics-document document" aria-roledescription="flowchart-v2"><style>#my-svg{font-family:arial,helvetica,sans-serif;font-size:16px;fill:#000;}@keyframes edge-animation-frame{from{stroke-dashoffset:0;}}@keyframes dash{to{stroke-dashoffset:0;}}#my-svg .edge-animation-slow{stroke-dasharray:9,5!important;stroke-dashoffset:900;animation:dash 50s linear infinite;stroke-linecap:round;}#my-svg .edge-animation-fast{stroke-dasharray:9,5!important;stroke-dashoffset:900;animation:dash 20s linear infinite;stroke-linecap:round;}#my-svg .error-icon{fill:#fff4e1;}#my-svg .error-text{fill:#000b1e;stroke:#000b1e;}#my-svg .edge-thickness-normal{stroke-width:1px;}#my-svg .edge-thickness-thick{stroke-width:3.5px;}#my-svg .edge-pattern-solid{stroke-dasharray:0;}#my-svg .edge-thickness-invisible{stroke-width:0;fill:none;}#my-svg .edge-pattern-dashed{stroke-dasharray:3;}#my-svg .edge-pattern-dotted{stroke-dasharray:2;}#my-svg .marker{fill:#0066cc;stroke:#0066cc;}#my-svg .marker.cross{stroke:#0066cc;}#my-svg svg{font-family:arial,helvetica,sans-serif;font-size:16px;}#my-svg p{margin:0;}#my-svg .label{font-family:arial,helvetica,sans-serif;color:#000;}#my-svg .cluster-label text{fill:#000b1e;}#my-svg .cluster-label span{color:#000b1e;}#my-svg .cluster-label span p{background-color:transparent;}#my-svg .label text,#my-svg span{fill:#000;color:#000;}#my-svg .node rect,#my-svg .node circle,#my-svg .node ellipse,#my-svg .node polygon,#my-svg .node path{fill:#ffffff;stroke:#0066cc;stroke-width:1px;}#my-svg .rough-node .label text,#my-svg .node .label text,#my-svg .image-shape .label,#my-svg .icon-shape .label{text-anchor:middle;}#my-svg .node .katex path{fill:#000;stroke:#000;stroke-width:1px;}#my-svg .rough-node .label,#my-svg .node .label,#my-svg .image-shape .label,#my-svg .icon-shape .label{text-align:center;}#my-svg .node.clickable{cursor:pointer;}#my-svg .root .anchor path{fill:#0066cc!important;stroke-width:0;stroke:#0066cc;}#my-svg .arrowheadPath{fill:#000000;}#my-svg .edgePath .path{stroke:#0066cc;stroke-width:2.0px;}#my-svg .flowchart-link{stroke:#0066cc;fill:none;}#my-svg .edgeLabel{background-color:#ffffff;text-align:center;}#my-svg .edgeLabel p{background-color:#ffffff;}#my-svg .edgeLabel rect{opacity:0.5;background-color:#ffffff;fill:#ffffff;}#my-svg .labelBkg{background-color:rgba(255, 255, 255, 0.5);}#my-svg .cluster rect{fill:#fff4e1;stroke:hsl(38, 60%, 84.1176470588%);stroke-width:1px;}#my-svg .cluster text{fill:#000b1e;}#my-svg .cluster span{color:#000b1e;}#my-svg div.mermaidTooltip{position:absolute;text-align:center;max-width:200px;padding:2px;font-family:arial,helvetica,sans-serif;font-size:12px;background:#fff4e1;border:1px solid hsl(38, 60%, 84.1176470588%);border-radius:2px;pointer-events:none;z-index:100;}#my-svg .flowchartTitleText{text-anchor:middle;font-size:18px;fill:#000;}#my-svg rect.text{fill:none;stroke-width:0;}#my-svg .icon-shape,#my-svg .image-shape{background-color:#ffffff;text-align:center;}#my-svg .icon-shape p,#my-svg .image-shape p{background-color:#ffffff;padding:2px;}#my-svg .icon-shape rect,#my-svg .image-shape rect{opacity:0.5;background-color:#ffffff;fill:#ffffff;}#my-svg .label-icon{display:inline-block;height:1em;overflow:visible;vertical-align:-0.125em;}#my-svg .node .label-icon path{fill:currentColor;stroke:revert;stroke-width:revert;}#my-svg :root{--mermaid-font-family:"trebuchet ms",verdana,arial,sans-serif;}</style><g><marker id="my-svg_flowchart-v2-pointEnd" class="marker flowchart-v2" viewBox="0 0 10 10" refX="5" refY="5" markerUnits="userSpaceOnUse" markerWidth="8" markerHeight="8" orient="auto"><path d="M 0 0 L 10 5 L 0 10 z" class="arrowMarkerPath" style="stroke-width: 1; stroke-dasharray: 1, 0;"/></marker><marker id="my-svg_flowchart-v2-pointStart" class="marker flowchart-v2" viewBox="0 0 10 10" refX="4.5" refY="5" markerUnits="userSpaceOnUse" markerWidth="8" markerHeight="8" orient="auto"><path d="M 0 5 L 10 10 L 10 0 z" class="arrowMarkerPath" style="stroke-width: 1; stroke-dasharray: 1, 0;"/></marker><marker id="my-svg_flowchart-v2-circleEnd" class="marker flowchart-v2" viewBox="0 0 10 10" refX="11" refY="5" markerUnits="userSpaceOnUse" markerWidth="11" markerHeight="11" orient="auto"><circle cx="5" cy="5" r="5" class="arrowMarkerPath" style="stroke-width: 1; stroke-dasharray: 1, 0;"/></marker><marker id="my-svg_flowchart-v2-circleStart" class="marker flowchart-v2" viewBox="0 0 10 10" refX="-1" refY="5" markerUnits="userSpaceOnUse" markerWidth="11" markerHeight="11" orient="auto"><circle cx="5" cy="5" r="5" class="arrowMarkerPath" style="stroke-width: 1; stroke-dasharray: 1, 0;"/></marker><marker id="my-svg_flowchart-v2-crossEnd" class="marker cross flowchart-v2" viewBox="0 0 11 11" refX="12" refY="5.2" markerUnits="userSpaceOnUse" markerWidth="11" markerHeight="11" orient="auto"><path d="M 1,1 l 9,9 M 10,1 l -9,9" class="arrowMarkerPath" style="stroke-width: 2; stroke-dasharray: 1, 0;"/></marker><marker id="my-svg_flowchart-v2-crossStart" class="marker cross flowchart-v2" viewBox="0 0 11 11" refX="-1" refY="5.2" markerUnits="userSpaceOnUse" markerWidth="11" markerHeight="11" orient="auto"><path d="M 1,1 l 9,9 M 10,1 l -9,9" class="arrowMarkerPath" style="stroke-width: 2; stroke-dasharray: 1, 0;"/></marker><g class="root"><g class="clusters"/><g class="edgePaths"><path d="M179.043,62L179.043,66.167C179.043,70.333,179.043,78.667,179.043,86.333C179.043,94,179.043,101,179.043,104.5L179.043,108" id="L_A_B_0" class="edge-thickness-normal edge-pattern-solid edge-thickness-normal edge-pattern-solid flowchart-link" style=";" data-edge="true" data-et="edge" data-id="L_A_B_0" data-points="W3sieCI6MTc5LjA0Mjk2ODc1LCJ5Ijo2Mn0seyJ4IjoxNzkuMDQyOTY4NzUsInkiOjg3fSx7IngiOjE3OS4wNDI5Njg3NSwieSI6MTEyfV0=" marker-end="url(#my-svg_flowchart-v2-pointEnd)"/><path d="M126.935,166L118.894,170.167C110.853,174.333,94.77,182.667,86.729,190.333C78.688,198,78.688,205,78.688,208.5L78.688,212" id="L_B_C_0" class="edge-thickness-normal edge-pattern-solid edge-thickness-normal edge-pattern-solid flowchart-link" style=";" data-edge="true" data-et="edge" data-id="L_B_C_0" data-points="W3sieCI6MTI2LjkzNTMyMTUxNDQyMzA4LCJ5IjoxNjZ9LHsieCI6NzguNjg3NSwieSI6MTkxfSx7IngiOjc4LjY4NzUsInkiOjIxNn1d" marker-end="url(#my-svg_flowchart-v2-pointEnd)"/><path d="M231.151,166L239.192,170.167C247.233,174.333,263.316,182.667,271.357,190.333C279.398,198,279.398,205,279.398,208.5L279.398,212" id="L_B_D_0" class="edge-thickness-normal edge-pattern-solid edge-thickness-normal edge-pattern-solid flowchart-link" style=";" data-edge="true" data-et="edge" data-id="L_B_D_0" data-points="W3sieCI6MjMxLjE1MDYxNTk4NTU3NjksInkiOjE2Nn0seyJ4IjoyNzkuMzk4NDM3NSwieSI6MTkxfSx7IngiOjI3OS4zOTg0Mzc1LCJ5IjoyMTZ9XQ==" marker-end="url(#my-svg_flowchart-v2-pointEnd)"/></g><g class="edgeLabels"><g class="edgeLabel"><g class="label" data-id="L_A_B_0" transform="translate(0, 0)"><foreignObject width="0" height="0"><div xmlns="http://www.w3.org/1999/xhtml" class="labelBkg" style="display: table-cell; white-space: nowrap; line-height: 1.5; max-width: 200px; text-align: center;"><span class="edgeLabel"></span></div></foreignObject></g></g><g class="edgeLabel"><g class="label" data-id="L_B_C_0" transform="translate(0, 0)"><foreignObject width="0" height="0"><div xmlns="http://www.w3.org/1999/xhtml" class="labelBkg" style="display: table-cell; white-space: nowrap; line-height: 1.5; max-width: 200px; text-align: center;"><span class="edgeLabel"></span></div></foreignObject></g></g><g class="edgeLabel"><g class="label" data-id="L_B_D_0" transform="translate(0, 0)"><foreignObject width="0" height="0"><div xmlns="http://www.w3.org/1999/xhtml" class="labelBkg" style="display: table-cell; white-space: nowrap; line-height: 1.5; max-width: 200px; text-align: center;"><span class="edgeLabel"></span></div></foreignObject></g></g></g><g class="nodes"><g class="node default" id="flowchart-A-0" transform="translate(179.04296875, 35)"><rect class="basic label-container" style="" x="-67.796875" y="-27" width="135.59375" height="54"/><g class="label" style="" transform="translate(-37.796875, -12)"><rect/><foreignObject width="75.59375" height="24"><div xmlns="http://www.w3.org/1999/xhtml" style="display: table-cell; white-space: nowrap; line-height: 1.5; max-width: 200px; text-align: center;"><span class="nodeLabel"><p>List[String]</p></span></div></foreignObject></g></g><g class="node default" id="flowchart-B-1" transform="translate(179.04296875, 139)"><rect class="basic label-container" style="" x="-119.375" y="-27" width="238.75" height="54"/><g class="label" style="" transform="translate(-89.375, -12)"><rect/><foreignObject width="178.75" height="24"><div xmlns="http://www.w3.org/1999/xhtml" style="display: table-cell; white-space: nowrap; line-height: 1.5; max-width: 200px; text-align: center;"><span class="nodeLabel"><p>AppliedType(List,[String])</p></span></div></foreignObject></g></g><g class="node default" id="flowchart-C-3" transform="translate(78.6875, 243)"><rect class="basic label-container" style="" x="-70.6875" y="-27" width="141.375" height="54"/><g class="label" style="" transform="translate(-40.6875, -12)"><rect/><foreignObject width="81.375" height="24"><div xmlns="http://www.w3.org/1999/xhtml" style="display: table-cell; white-space: nowrap; line-height: 1.5; max-width: 200px; text-align: center;"><span class="nodeLabel"><p>tycon = List</p></span></div></foreignObject></g></g><g class="node default" id="flowchart-D-5" transform="translate(279.3984375, 243)"><rect class="basic label-container" style="" x="-80.0234375" y="-27" width="160.046875" height="54"/><g class="label" style="" transform="translate(-50.0234375, -12)"><rect/><foreignObject width="100.046875" height="24"><div xmlns="http://www.w3.org/1999/xhtml" style="display: table-cell; white-space: nowrap; line-height: 1.5; max-width: 200px; text-align: center;"><span class="nodeLabel"><p>args = [String]</p></span></div></foreignObject></g></g></g></g></g></svg>
